berloni/img/size-icon.svg

<svg width="81" height="47" viewBox="0 0 81 47" fill="none" xmlns="http://www.w3.org/2000/svg">
<path d="M17.3064 8.94609L4.56191 9.35399C2.81986 9.40975 1.97777 11.512 3.19959 12.755L5.2028 14.7929C5.39275 14.9861 5.65299 15.094 5.92395 15.0918L57.0875 14.6825C58.1857 14.6738 59.0715 13.7809 59.0715 12.6826V10.8579C59.0715 9.77181 58.2047 8.88422 57.1189 8.85847L42.8895 8.52109C42.3233 8.50766 41.7893 8.25477 41.4201 7.8252L35.2937 0.696449C34.9137 0.254337 34.3598 0 33.7768 0H23.6146C22.8051 0 22.0754 0.488033 21.7662 1.23623L19.0909 7.71088C18.7906 8.4376 18.0924 8.92094 17.3064 8.94609Z" fill="#EE3425"/>
<path d="M55.5057 12.2884L9.56871 12.0286C7.75418 12.0183 6.86485 14.2355 8.18349 15.482L8.90528 16.1643C9.27347 16.5123 9.76003 16.7077 10.2667 16.7109L55.4937 16.9937C56.0485 16.9972 56.5 16.5485 56.5 15.9937V13.2884C56.5 12.7383 56.0557 12.2915 55.5057 12.2884Z" fill="#EE3425"/>
<circle cx="20.3095" cy="17.8097" r="3.14286" fill="#EE3425"/>
<circle cx="47.5476" cy="17.8097" r="3.14286" fill="#EE3425"/>
<path d="M2.5 29.9999C2.5 27.7908 4.29086 25.9999 6.5 25.9999H76.5C78.7091 25.9999 80.5 27.7908 80.5 29.9999C80.5 32.2091 78.7091 33.9999 76.5 33.9999H6.5C4.29086 33.9999 2.5 32.2091 2.5 29.9999Z" fill="#EE3425"/>
<path d="M11.0713 41.3677H10.4976V39.063C10.4976 38.7879 10.5041 38.5698 10.5171 38.4087C10.4797 38.4478 10.4333 38.4909 10.378 38.5381C10.3242 38.5853 10.142 38.735 9.83108 38.9873L9.54299 38.6235L10.5928 37.7983H11.0713V41.3677Z" fill="#EE3425"/>
<path d="M10.5 31V35.3776" stroke="white"/>
<path d="M31.8062 41.3677H29.3867V40.9331L30.3072 40.0078C30.579 39.7295 30.7588 39.5326 30.8467 39.417C30.9362 39.2998 31.0013 39.1899 31.042 39.0874C31.0827 38.9849 31.1031 38.875 31.1031 38.7578C31.1031 38.5967 31.0542 38.4697 30.9566 38.377C30.8605 38.2842 30.7271 38.2378 30.5562 38.2378C30.4195 38.2378 30.2868 38.263 30.1582 38.3135C30.0313 38.3639 29.884 38.4551 29.7163 38.5869L29.4063 38.2085C29.6048 38.0409 29.7977 37.922 29.9849 37.8521C30.1721 37.7821 30.3714 37.7471 30.583 37.7471C30.9151 37.7471 31.1812 37.8341 31.3814 38.0083C31.5816 38.1808 31.6817 38.4136 31.6817 38.7065C31.6817 38.8677 31.6524 39.0207 31.5938 39.1655C31.5368 39.3104 31.4481 39.4601 31.3277 39.6147C31.2088 39.7677 31.0103 39.9753 30.732 40.2373L30.1118 40.8379V40.8623H31.8062V41.3677Z" fill="#EE3425"/>
<path d="M30.5 31V35.3776" stroke="white"/>
<path d="M51.6719 38.6187C51.6719 38.8449 51.606 39.0337 51.4741 39.1851C51.3423 39.3348 51.1568 39.4357 50.9175 39.4878V39.5073C51.204 39.5431 51.4188 39.6326 51.562 39.7759C51.7053 39.9175 51.7769 40.1063 51.7769 40.3423C51.7769 40.6857 51.6556 40.951 51.4131 41.1382C51.1706 41.3237 50.8255 41.4165 50.378 41.4165C49.9824 41.4165 49.6488 41.3522 49.377 41.2236V40.7134C49.5283 40.7882 49.6887 40.846 49.8579 40.8867C50.0272 40.9274 50.19 40.9478 50.3462 40.9478C50.6229 40.9478 50.8296 40.8965 50.9663 40.7939C51.1031 40.6914 51.1714 40.5327 51.1714 40.3179C51.1714 40.1274 51.0957 39.9875 50.9444 39.8979C50.793 39.8084 50.5554 39.7637 50.2315 39.7637H49.9214V39.2974H50.2364C50.806 39.2974 51.0908 39.1004 51.0908 38.7065C51.0908 38.5535 51.0412 38.4355 50.9419 38.3525C50.8426 38.2695 50.6962 38.228 50.5025 38.228C50.3674 38.228 50.2372 38.2476 50.1118 38.2866C49.9865 38.3241 49.8384 38.3981 49.6675 38.5088L49.3867 38.1084C49.7139 37.8675 50.0939 37.7471 50.5269 37.7471C50.8866 37.7471 51.1673 37.8244 51.3692 37.979C51.571 38.1336 51.6719 38.3468 51.6719 38.6187Z" fill="#EE3425"/>
<path d="M50.5 31V35.3776" stroke="white"/>
<path d="M72.9331 40.5889H72.4522V41.3677H71.8931V40.5889H70.2622V40.147L71.8931 37.7886H72.4522V40.1128H72.9331V40.5889ZM71.8931 40.1128V39.2168C71.8931 38.8978 71.9012 38.6366 71.9175 38.4331H71.898C71.8524 38.5405 71.7808 38.6707 71.6831 38.8237L70.7969 40.1128H71.8931Z" fill="#EE3425"/>
<path d="M71.5 31V35.3776" stroke="white"/>
<path d="M24.8086 3.54029L23.2556 6.54029C22.9111 7.20592 23.3942 8 24.1437 8H35.9194C36.7579 8 37.2241 7.03007 36.7002 6.3753L34.3002 3.3753C34.1105 3.13809 33.8232 3 33.5194 3H25.6966C25.3229 3 24.9804 3.2084 24.8086 3.54029Z" fill="white"/>
</svg>

<svg width="81" height="47" fill="none" xmlns="http://www.w3.org/2000/svg"><path d="M17.306 8.946l-12.744.408C2.82 9.41 1.978 11.512 3.2 12.755l2.003 2.038a1 1 0 0 0 .72.299l51.165-.41a2 2 0 0 0 1.983-2v-1.824a2 2 0 0 0-1.952-2l-14.23-.337a2 2 0 0 1-1.469-.696L35.294.696A2 2 0 0 0 33.777 0H23.615a2 2 0 0 0-1.849 1.236l-2.675 6.475a2 2 0 0 1-1.785 1.235z" fill="#EE3425"/><path d="M55.506 12.288l-45.937-.26c-1.815-.01-2.704 2.207-1.386 3.454l.722.682a2 2 0 0 0 1.362.547l45.227.283a1 1 0 0 0 1.006-1v-2.706a1 1 0 0 0-.994-1z" fill="#EE3425"/><circle cx="20.309" cy="17.81" r="3.143" fill="#EE3425"/><circle cx="47.548" cy="17.81" r="3.143" fill="#EE3425"/><path d="M2.5 30a4 4 0 0 1 4-4h70a4 4 0 0 1 0 8h-70a4 4 0 0 1-4-4zM11.071 41.368h-.573v-2.305c0-.275.006-.493.02-.654-.038.039-.085.082-.14.13-.054.046-.236.196-.547.448l-.288-.364 1.05-.825h.478v3.57z" fill="#EE3425"/><path d="M10.5 31v4.378" stroke="#fff"/><path d="M31.806 41.368h-2.42v-.435l.921-.925c.272-.279.452-.475.54-.591.09-.117.154-.227.195-.33a.885.885 0 0 0 .061-.33.5.5 0 0 0-.146-.38c-.097-.093-.23-.14-.4-.14-.137 0-.27.026-.399.076a1.87 1.87 0 0 0-.442.274l-.31-.379c.199-.167.392-.286.579-.356.187-.07.386-.105.598-.105.332 0 .598.087.798.261.2.173.3.406.3.698 0 .162-.029.315-.087.46a1.835 1.835 0 0 1-.266.449c-.12.153-.318.36-.596.622l-.62.6v.025h1.694v.506z" fill="#EE3425"/><path d="M30.5 31v4.378" stroke="#fff"/><path d="M51.672 38.619a.831.831 0 0 1-.198.566.999.999 0 0 1-.556.303v.02c.286.035.5.125.644.268.143.141.215.33.215.566 0 .344-.121.609-.364.796-.242.186-.587.279-1.035.279-.396 0-.73-.065-1.001-.193v-.51a2.29 2.29 0 0 0 .97.234c.276 0 .483-.051.62-.154.136-.103.204-.261.204-.476 0-.19-.075-.33-.227-.42-.151-.09-.389-.134-.713-.134h-.31v-.467h.315c.57 0 .855-.197.855-.59a.436.436 0 0 0-.15-.355c-.098-.082-.245-.124-.439-.124-.135 0-.265.02-.39.059a1.811 1.811 0 0 0-.445.222l-.28-.4c.327-.242.707-.362 1.14-.362.36 0 .64.077.842.232a.761.761 0 0 1 .303.64z" fill="#EE3425"/><path d="M50.5 31v4.378" stroke="#fff"/><path d="M72.933 40.589h-.48v.779h-.56v-.78h-1.63v-.441l1.63-2.358h.56v2.324h.48v.476zm-1.04-.476v-.896c0-.32.008-.58.025-.784h-.02a2.77 2.77 0 0 1-.215.39l-.886 1.29h1.096z" fill="#EE3425"/><path d="M71.5 31v4.378" stroke="#fff"/><path d="M24.809 3.54l-1.553 3A1 1 0 0 0 24.144 8h11.775a1 1 0 0 0 .781-1.625l-2.4-3A1 1 0 0 0 33.52 3h-7.823a1 1 0 0 0-.888.54z" fill="#fff"/></svg>
